!!!!SEGMENT: pl-wumfc--r288_paderewski-ignacy-jan--exercise.krn
!!!cenid: 18xx:3208
!!!COM: Paderewski, Ignacy Jan
!!!COM-rismID: pe30029943
!!!CDT: 1860/11/18-1941/06/29
!!!CNT: Polish
!!!OTL: [Exercise]
!!!PDT:
!!!AGN:
!!!SMS-siglum: PL-Wumfc
!!!SMS-shelfmark: R288
!!!SMS-shelfwork: W
!!!SMS-variant:
!!!SMS-altvar:
!!!NIFC-rismSourceID: 1001159466
!!!NIFC-islandoraID: pl-wumfc:8531
!!!URL-pdf-islandora: https://repozytorium.nifc.pl/islandora/object/pl-wumfc%3A8531/datastream/PDF/view
!!!URL-scan: https://polish.musicsources.pl/pl/lokalizacje/galeria/rekopisy/4708 @EN{Scan on Polish Music Sources Website} @PL{Skany w portalu Dziedzictwo Muzyki Polskiej w otwartym dostępie}
!!!ONB-nifc:
!!!AIN: 2 empty
!!!key:
**kern	**kern
*part2	*part1
*staff2	*staff1
*Iempty	*Iempty
*I"III ed IV in F.	*I"Corni 1 ed II in F.
*I'cor 2 in F	*I'cor 1 in F
*clefG2	*clefG2
*ITrd4c7	*ITrd4c7
*k[b-]	*k[b-]
*F:	*F:
*M6/8	*M6/8
=1	=1
*^	*
4c/	4C\	2.r
8c/	8C\	.
[4.c/	[4.C\	.
=2	=2	=2
*	*	*^
2.c/_	2.C\_	(4e/	4G\
.	.	8f/)	8A\
.	.	(4d/	4F\
.	.	8f/)	8A\
=3	=3	=3	=3
4c/]	4C\]	4e/	4G\
8c/	8C\	8r	8r
[4.c/	[4.C\	4r	4r
.	.	8r	8r
=4	=4	=4	=4
2.c/]	2.C\]	(4g/	(>4B-\
.	.	8a/)	8c\)
.	.	4f/	(>4A\
.	.	8a/	8c\)
=5	=5	=5	=5
4e/	4C\	4.g/	4.c\
8e/	8C\	.	.
4.d/	4.G\	4.b-/	4.B-\
=6	=6	=6	=6
4e/	4C\	(8g/L	4c\
.	.	8a/	.
8e/	8C\	8g/J)	8c\
4.d/	4.G\	4.b-/	4.B-\
!!LO:LB:g=original
=7	=7	=7	=7
4e/	4C\	4g/	4c\
8r	8r	8c/	8r
4r	4r	[<4.cc/	4r
8r	(>8C\	.	8r
=8	=8	=8	=8
8r	8c\L)	2.cc/_	8r
8f/L	8d\	.	8b-\L
8e/J	8c\	.	8a\J
8d/L	8B-\	.	8g\L
8c/	8A\	.	8f\
8B-/J	8G\J	.	8e\J
=9	=9	=9	=9
8A/L	8F\L	2.cc/]	8d\L
8B-/	8G\	.	8e\
8A/J	8F\J	.	8d\J
8G/L	8E\L	.	4c\
8F/	8D\	.	.
8E/J	8E\J	.	8c\
=10	=10	=10	=10
[4A/	4.F\	(4c/	[4c\
8A/]	.	8f/)	8c\]
4B-/	4.FF\	(4g/	4d\
8d/	.	8b-/)	8f\
=11	=11	=11	=11
8.c/L	4.F\	8.a/L	8.f\L
16B-/K	.	16g/K	16e\K
8A/J	.	8f/J	8f\J
4B-/	[4.FF\	(4g/	4d\
8d/	.	8b-/)	8f\
=12	=12	=12	=12
8.c/L	4.FF\]	8.a/L	8.f\L
16B-/K	.	16g/K	16e\K
8A/J	.	8f/J	8f\J
4G/	4.GG\	4e/	4c\
8F/	.	8d/	8BX\
!!LO:LB:g=original
=13	=13	=13	=13
!LO:TX:a:t=2	!	!LO:N:vis=2	!
2.E/	8C\L	2.c/	2.c\
.	8D	.	.
.	8C\J	.	.
.	8BB-\L	.	.
.	8AA\	.	.
.	8GG\J	.	.
=14	=14	=14	=14
4F/	2.FF\	(4c/	4A\
8A/	.	8f/)	8c\
4B-/	.	(4g/	4d\
8d/	.	8b-/)	8f\
=15	=15	=15	=15
8.c/L	[4.F\	8.a/L	8.f\L
16B-/K	.	16g/K	16e\K
8A/J	.	8f/J	8f\J
4B-/	4.F\]	4g/	4d\
8d/	.	8b-/	8f\
=16	=16	=16	=16
8.c/L	[4.F\	8.a/L	8.f\L
16B-/K	.	16g/K	16e\K
8A/J	.	8f/J	8f\J
4A/	4F\]	4a/	4c\
8A/	8F\	8bX/	8d\
=17	=17	=17	=17
4G#X/	4E\	(4cc/	4e\
8G#/	8E\	8bX/	8d\
4A/	4A\	4a/)	4c\
8r	8r	8A/	8r
=18	=18	=18	=18
!	!	!LO:N:vis=2	!
4r	4r	[2.a/	4r
8c/	8A\	.	8e\
8d/L	8A\L	.	8f\L
8c/	8A\	.	8e\
8BX/J	8A\J	.	8d\J
!!LO:LB:g=original
=19	=19	=19	=19
8d/L	8A\L	4.a/_	8f\L
8c/	8A\	.	8e\
8BX/J	8A\J	.	8d\J
4c/	4A\	4a/]	4e\
8r	8r	8A/	8r
=20	=20	=20	=20
4r	4r	[2.d/	4r
8F#X/	8D\	.	8A\
8G/L	8D\L	.	8B-\L
8F#/	8D\	.	8A\
8E/J	8D\J	.	8G\J
=21	=21	=21	=21
8G/L	8D\L	2.d/]	8B-\L
8F#X/	8D\	.	8A\
8E/J	8D\J	.	8G\J
4F#/	4D\	.	4A\
8F#/	8D\	.	8A\
=22	=22	=22	=22
4.G/	4.GG\	4d/	4.B-\
.	.	8e/	.
4.F/	4.D\	4f/	[>4.A\
.	.	8g/	.
=23	=23	=23	=23
4.E/	4.C\	4.a/	4.A\]
4.G/	4.BB-\	4.g/	4.d\
=24	=24	=24	=24
[4.A/	4.AA\	4.e/	4.c#X\
!LO:N:vis=4	!	!	!
4.A/]	4.D\	4.f/	4.d\
!!LO:LB:g=original
=25	=25	=25	=25
4.B-/	4.BB-\	4f/	4.d\
.	.	8g/	.
4.A/	4.F\	4a/	[4.c\
.	.	8b-/	.
=26	=26	=26	=26
4.G/	4.E\	4.cc/	4.c\]
!	!	!LO:N:vis=4	!
4.B-/	4.D\	4.b-/	4f\
.	.	.	8ryy
=27	=27	=27	=27
[4.c/	[4.C\	[4.g/	[4.e\
4c/]	4C\]	4g/]	4e\]
8r	8r	8c/	8r
=28	=28	=28	=28
8r	8r	2.cc/	8r
8f/L	8d\L	.	(>8b-\L
8e/J	8c\J	.	8a\J)
4d/	4B-\	.	4g\
8e/	8c\	.	8a\
=29	=29	=29	=29
8r	8r	2.cc/	8r
8f/L	8d\L	.	8b-\L
8e/J	8c\J	.	8a\J
4d/	4B-\	.	4g\
8e/	8c\	.	8a\
!!LO:LB:g=original
=30	=30	=30	=30
8r	8r	8ryy	8r
8c/L	8A\L	2cc/	8f\L
8B-/J	8G\J	.	8e\J
4A/	4F\	.	4d\
8B-/	8G\	8ryy	8e\
=31	=31	=31	=31
8r	8r	2.cc/	8r
8c/L	8A\L	.	8f\L
8B-/J	8G\J	.	8e\
8A/L	8F\L	.	8d\
8B-/	8C\	.	8e\
8B-/J	8C\J	.	8c\J
=32	=32	=32	=32
4A/	4F\	[2.cc/	4c\
8c/	8A\	.	8f\
4d/	4B-\	.	4g\
8f/	8d\	.	8b-\
=33	=33	=33	=33
8.f/L	8.c\L	2.cc/_	8.a\L
16e/K	16B-\K	.	16g\K
8c/J	8A\J	.	8f\J
4d/	4B-\	.	4g\
8f/	8d\	.	8b-\
=34	=34	=34	=34
8.f/L	8.c\L	2.cc/_	8.a\L
16e/K	16B-\K	.	16g\K
8fJ 8d/	8A\J	.	8f\J
4B-/	4G\	.	4e\
8A/	8F\	.	8d\
=35	=35	=35	=35
4.G/	4.E\	8cc/L]	4.c\
.	.	8dd/	.
.	.	8cc/J	.
4.F#X/	4.D\	8b-/L	4.d\
.	.	8a/	.
.	.	8d/J	.
!!LO:LB:g=original
=36	=36	=36	=36
4G/	[4.G\	4d/	4B-\
8B-/	.	8g/	8d\
4c/	4.G\]	4a/	4e-X\
!	!	!	!LO:N:vis=4
8e-X/	.	8cc/	8a\
=37	=37	=37	=37
8.d/L	[2.G\	8.b-/L	8.g\L
16c/K	.	16a/K	16f#X\K
8B-/J	.	8g/J	8g\J
4c/	.	4a/	4e-X\
8e-X/	.	8cc/	8a\
=38	=38	=38	=38
8.d/L	4.G\]	8.b-/L	8.g\L
16c/K	.	16a/K	16f#X\K
8B-/J	.	8g/J	8g\J
4c/	4.C\	4a/	4.e\
8B-/	.	8g/	.
=39	=39	=39	=39
2.A/	2.F\	2.f/	2.c\
*v	*v	*	*
*	*v	*v
==	==
*-	*-
!!!system-decoration: s1,s2
!!!RDF**kern: > = above
!!!RDF**kern: < = below
!!!ENC: Filip Voros
!!!END: 2021-11-14
!!!ENC: Leszek Kubiak
!!!END: 2021-11-17
!!!YEC: Copyright 2022 Narodowy Instytut Fryderyka Chopina (https://polishscores.org)
!!!YEM: Licence CC BY 4.0 (https://creativecommons.org/licenses/by/4.0)
